!!!!SEGMENT: pl-kk--kk-i-1--054_sebastian-z-felsztyna--alleluia-faelix-es-sacra.krn
!!!cenid: 15xx:774
!!!COM: Sebastian z Felsztyna
!!!COM-rismID:
!!!CDT: ~1480->1543
!!!CNT: Polish
!!!OTL: Alleluia, faelix es sacra
!!!PDT:
!!!AGN:
!!!SMS-siglum: PL-Kk
!!!SMS-shelfmark: Kk.I.1
!!!SMS-shelfwork: 054 W
!!!SMS-variant:
!!!SMS-altvar:
!!!NIFC-rismSourceID: 300258008
!!!NIFC-islandoraID: pl-kk:1
!!!URL-pdf-islandora: https://repozytorium.nifc.pl/islandora/object/pl-kk%3A1/datastream/PDF/view
!!!URL-scan: https://polish.musicsources.pl/pl/lokalizacje/galeria/rekopisy/5736 @EN{Scan on Polish Music Herritage in Open Access Website} @PL{Skany w portalu Dziedzictwo Muzyki Polskiej w otwartym dostępie}
!!!ONB-nifc: UWAGA: Cantus (s. 164v-165v, skan 0167-0168), Altus (s. 161v-162r, skan 0355), Tenor (s. 139v-140r, skan 0530), Bassus (s. 150v-151r, skan 0713-0714).
!!!AIN: 1 alto 1 bass 1 soprn 1 tenor
!!!key:
**kern	**text	**kern	**text	**kern	**text	**kern	**text
*part4	*part4	*part3	*part3	*part2	*part2	*part1	*part1
*staff4	*staff4	*staff3	*staff3	*staff2	*staff2	*staff1	*staff1
*I"BASSVS	*	*I"TENOR	*	*I"ALTVS	*	*I"CANTVS	*
*I'B	*	*I'T	*	*I'A	*	*I'S	*
*Ibass	*	*Itenor	*	*Ialto	*	*Isoprn	*
*ICvox	*	*ICvox	*	*ICvox	*	*ICvox	*
*clefF5	*	*clefC4	*	*clefC3	*	*clefC3	*
*k[]	*	*k[]	*	*k[]	*	*k[]	*
*C:	*	*C:	*	*C:	*	*C:	*
*stria6	*	*stria6	*	*stria6	*	*stria6	*
*M2/1	*	*M2/1	*	*M2/1	*	*M2/1	*
*met(C|)	*	*met(C|)	*	*met(C|)	*	*met(C|)	*
=1-	=1-	=1-	=1-	=1-	=1-	=1-	=1-
!	!	!LO:TX:a:t=De {Conceptione \nViſitatione \nNatiuitate.	!	!	!	!LO:TX:a:t=De Conceptione \nViſitatione \nNatiuitate.	!
!	!	!LO:TX:a:t=Sebaſtiani Felſtin	!	!	!	!LO:TX:a:t=Sebaſtiani Felſtin	!
1G	Al-	1G	AL-	1d	Al-	1g	AL-
*lig	*	*	*	*	*	*	*
1G	-le-	1G	-Le-	0c	-le-	1g	-Le-
=2-	=2-	=2-	=2-	=2-	=2-	=2-	=2-
*	*	*lig	*	*	*	*lig	*
1D	.	1A	.	.	.	1f	.
*Xlig	*	*	*	*	*	*	*
*	*	*	*	*	*	*custos:d	*
2E\	.	1G	.	2B/	.	1e	.
2C/	.	.	.	2c/	.	.	.
!	!	!	!	!	!	!LO:LB:g=original	!
*	*	*Xlig	*	*	*	*Xlig	*
=3-	=3-	=3-	=3-	=3-	=3-	=3-	=3-
*lig	*	*lig	*	*	*	*	*
1D	.	1F	.	1A	.	0d	.
*	*	*custos:A	*	*	*	*	*
1GG	.	1G	.	2.B/	.	.	.
.	.	.	.	4c/	.	.	.
!	!	!LO:LB:g=original	!	!	!	!	!
*Xlig	*	*Xlig	*	*	*	*	*
=4-	=4-	=4-	=4-	=4-	=4-	=4-	=4-
1D	-lu-	1A	-lu-	1d	.	1f	.
*	*	*lig	*	*	*	*	*
2C/	.	1c	.	2G/	-lu-	2e\	.
2AA/	.	.	.	2A/	-ia	2c/	.
=5-	=5-	=5-	=5-	=5-	=5-	=5-	=5-
2BB/	.	1B	.	2G/	.	1d	.
2G\	.	.	.	2.g\	.	.	.
*	*	*Xlig	*	*	*	*	*
2E\	.	1c	.	.	.	2e\	.
.	.	.	.	4f\	.	.	.
2C/	.	.	.	2e\	.	1g\	-lu-
=6-	=6-	=6-	=6-	=6-	=6-	=6-	=6-
*	*	*lig	*	*	*	*	*
1D	-ia	1A	-ia.	1d	.	.	.
.	.	.	.	.	.	2f\	-ia
*	*	*	*	*custos:f	*	*	*
!LO:TX:t=P:problem=kreska pseudotaktowa	!	!LO:TX:t=P:problem=kreska pseudotaktowa	!	!LO:TX:t=P:problem=kreska pseudotaktowa	!	!LO:TX:t=P:problem=kreska pseudotaktowa	!
1GG	.	1G	.	1d	.	1g	.
!	!	!	!	!LO:LB:g=original	!	!	!
*	*	*Xlig	*	*	*	*	*
=7-	=7-	=7-	=7-	=7-	=7-	=7-	=7-
*	*	*lig	*	*	*	*	*
1r	.	1A	.	1f	.	0rg	.
*custos:D	*	*	*	*	*	*	*
1E	.	1G	.	2e\	.	.	.
.	.	.	.	2c/	.	.	.
!LO:LB:g=original	!	!	!	!	!	!	!
*	*	*Xlig	*	*	*	*	*
=8-	=8-	=8-	=8-	=8-	=8-	=8-	=8-
1D	.	1F	.	1d	.	1a	.
2C/	.	1G	.	2e/	.	1g	.
2E\	.	.	.	2c/	.	.	.
=9-	=9-	=9-	=9-	=9-	=9-	=9-	=9-
1D	.	1A	.	1d	.	1f	.
*	*	*lig	*	*	*	*	*
2C/	.	1c	.	2e\	.	2g\	.
2.F\	.	.	.	2f\	.	2.a\	.
=10-	=10-	=10-	=10-	=10-	=10-	=10-	=10-
.	.	1A	.	2c/	.	.	.
4E\	.	.	.	.	.	4g\	.
2D/	.	.	.	4d/	.	4f\	.
.	.	.	.	4c/	.	4e\	.
*	*	*Xlig	*	*	*	*	*
2.G\	.	1B	.	4B/	.	2d\	.
.	.	.	.	4c/	.	.	.
.	.	.	.	2d/	.	1g\	.
4F\	.	.	.	.	.	.	.
=11-	=11-	=11-	=11-	=11-	=11-	=11-	=11-
1D	.	1A	.	1d	.	.	.
*	*	*	*	*	*	*custos:g	*
.	.	.	.	.	.	2f\	.
*	*	*custos:G	*	*	*	*	*
!	!	!	!	!	!	!LO:LB:g=original	!
!	!	!LO:N:vis=00	!	!	!	!	!
2E\	.	[y2G	.	2B/	.	2g\	.
1C/	.	[y2.G]yy	.	2.c/	.	1e\	.
=12-	=12-	=12-	=12-	=12-	=12-	=12-	=12-
.	.	.	.	.	.	.	.
.	.	4G]yy	.	4B/	.	.	.
2BB/	.	[y1.Gyy	.	2G/	.	4d\	.
.	.	.	.	.	.	4c\	.
1C	.	.	.	2G/	.	2d\	.
.	.	.	.	2c/	.	2e\	.
=13-	=13-	=13-	=13-	=13-	=13-	=13-	=13-
*custos:C	*	*	*	*	*	*	*
0GG;	.	0G]yy	.	0B;	.	0d	.
!LO:PB:g=original	!	!LO:LB:g=original	!	!LO:LB:g=original	!	!	!
=14-	=14-	=14-	=14-	=14-	=14-	=14-	=14-
1.C	Fae-	1G	Fae-	1c	Fae-	2.g\	F(ae)-
.	.	.	.	.	.	4f\	.
*	*	*lig	*	*	*	*	*
.	.	1c	.	2G/	-lix	1e	.
2AA/	.	.	.	2A/	.	.	.
=15-	=15-	=15-	=15-	=15-	=15-	=15-	=15-
2BB/	.	1B	.	2rA	.	0d	.
2.GG/	.	.	.	2G/	.	.	.
*	*	*Xlig	*	*	*	*	*
*	*	*lig	*	*	*	*	*
.	.	1B	-lix	1G	.	.	.
4AA/	.	.	.	.	.	.	.
2BB/	.	.	.	.	.	.	.
=16-	=16-	=16-	=16-	=16-	=16-	=16-	=16-
1AA	.	1c	.	2rA	.	2e\	-lix
.	.	.	.	2A/	.	2c/	.
*	*	*Xlig	*	*	*	*	*
*	*	*lig	*	*	*	*	*
2GG/	.	1d	.	2d\	.	2B/	.
2BB/	.	.	.	2B/	.	2d/	.
=17-	=17-	=17-	=17-	=17-	=17-	=17-	=17-
*lig	*	*	*	*lig	*	*	*
1C	.	1c	.	1e	.	2e\	.
.	.	.	.	.	.	1g	es
*	*	*Xlig	*	*	*	*	*
*	*	*lig	*	*	*	*	*
1D	.	1A	.	1d	.	.	.
*	*	*	*	*	*	*custos:g	*
.	.	.	.	.	.	2f\	.
!	!	!	!	!	!	!LO:LB:g=original	!
*Xlig	*	*	*	*Xlig	*	*	*
=18-	=18-	=18-	=18-	=18-	=18-	=18-	=18-
1GG	-lix	1G	.	2.d\	es	2.g\	.
.	.	.	.	4c/	.	8f\L	.
.	.	.	.	.	.	8e\J	.
*	*	*Xlig	*	*	*	*	*
2GG/	es	1G,<	es	4B/	.	1d	.
.	.	.	.	4A/	.	.	.
2G\	ſa-	.	.	2B/	.	.	.
=19-	=19-	=19-	=19-	=19-	=19-	=19-	=19-
*	*	*lig	*	*	*	*	*
2F\	.	1A	ſa-	2c/	.	1f	.
2D/	.	.	.	2d\	ſa-	.	.
*lig	*	*	*	*	*	*	*
1E	.	1G	.	1B	.	2.e\	.
.	.	.	.	.	.	4d/	.
*	*	*Xlig	*	*	*	*	*
=20-	=20-	=20-	=20-	=20-	=20-	=20-	=20-
*	*	*custos:F	*	*	*	*	*
1AA	.	1A	.	4c/	.	1c	.
.	.	.	.	4B/	.	.	.
.	.	.	.	4A/	.	.	.
.	.	.	.	4G/	.	.	.
!	!	!LO:LB:g=original	!	!	!	!	!
*Xlig	*	*lig	*	*	*	*	*
0D	.	1F	-cra	1A	.	2d\	.
.	.	.	.	.	.	1f\	ſa-
=21-	=21-	=21-	=21-	=21-	=21-	=21-	=21-
*	*	*	*	*lig	*	*	*
.	.	1A	.	1d	.	.	.
.	.	.	.	.	.	4e\	.
.	.	.	.	.	.	4d\	.
*lig	*	*Xlig	*	*	*	*	*
*	*	*lig	*	*	*	*	*
*	*	*	*	*custos:A	*	*	*
1C	-cra	1c	.	1G	.	2.e\	.
.	.	.	.	.	.	4d/	.
!	!	!	!	!LO:LB:g=original	!	!	!
*	*	*	*	*Xlig	*	*	*
=22-	=22-	=22-	=22-	=22-	=22-	=22-	=22-
1F	.	1A	.	4A/	-cra	2c/	-cra
.	.	.	.	4G/	.	.	.
.	.	.	.	4A/	.	1f	.
.	.	.	.	4B/	.	.	.
*Xlig	*	*Xlig	*	*	*	*	*
*custos:D	*	*	*	*	*	*	*
1C	.	1G	.	1c	.	.	.
.	.	.	.	.	.	2e\	vir-
!LO:LB:g=original	!	!	!	!	!	!	!
=23-	=23-	=23-	=23-	=23-	=23-	=23-	=23-
*	*	*lig	*	*	*	*	*
1D	.	1F	vir-	1A	.	1f	.
1GG	vir-	1G	.	4B/	vir-	1d	.
.	.	.	.	2c/	.	.	.
.	.	.	.	4B/	-go	.	.
*	*	*Xlig	*	*	*	*	*
=24-	=24-	=24-	=24-	=24-	=24-	=24-	=24-
*	*	*	*	*	*	*custos:d	*
1C	-go	1G	-go	1c	.	1e	.
*	*	*lig	*	*	*	*	*
!	!	!	!	!	!	!LO:PB:g=original	!
2r	.	1G	Ma-	1B	.	2d\	-go
2BB/	Ma-	.	.	.	.	2B/	Ma-
=25-	=25-	=25-	=25-	=25-	=25-	=25-	=25-
*	*	*	*	*	*	*lig	*
4AA/	-ri-	1A	.	2rA	.	1c	-ri-
4BB/	.	.	.	.	.	.	.
4C/	.	.	.	2e\	Ma-	.	.
4D/	.	.	.	.	.	.	.
*	*	*Xlig	*	*	*	*	*
1E	.	1G	.	2.e\	-ri-	1B	.
.	.	.	.	4d\	.	.	.
*	*	*	*	*	*	*Xlig	*
=26-	=26-	=26-	=26-	=26-	=26-	=26-	=26-
2F\	.	1F	.	2c/	.	1A	-a
2D/	.	.	.	2d\	-a	.	.
*	*	*lig	*	*	*	*	*ij
2C/	.	1G	.	2e\	.	2rA	.
2BB/	.	.	.	2B/	.	2d\	Ma-
=27-	=27-	=27-	=27-	=27-	=27-	=27-	=27-
1AA	-a	1A	.	2.c/	.	2c/	.
.	.	.	.	.	.	2.e\	-ri-
.	.	.	.	4B/	.	.	.
*	*ij	*Xlig	*	*	*	*	*
2rAA	.	1c	.	2A/	.	.	.
.	.	.	.	.	.	4f\	.
2.C/	Ma-	.	.	2G/	.	1g\	.
=28-	=28-	=28-	=28-	=28-	=28-	=28-	=28-
*	*	*custos:A	*	*custos:d	*	*	*
.	.	1G	-ri-	1c	.	.	.
4D/	.	.	.	.	.	.	.
2E\	.	.	.	.	.	4f\	.
.	.	.	.	.	.	4e\	.
!	!	!LO:PB:g=original	!	!LO:PB:g=original	!	!	!
*lig	*	*lig	*	*	*	*	*
1D	-ri-	1A	.	0d	.	1f	.
=29-	=29-	=29-	=29-	=29-	=29-	=29-	=29-
1GG	-­-	1G	.	.	.	1g	-a
*Xlig	*	*Xlig	*	*	*	*	*Xij
2GG/	-a	1G,<	-a	2B/	.	2re	.
*	*Xij	*	*	*	*	*	*
2GG/	e(t)	.	.	2B/	.	2d/	et
=30-	=30-	=30-	=30-	=30-	=30-	=30-	=30-
*custos:C	*	*	*	*	*	*	*
1GG	.	1G	et	1B	e(t)	1d	om:-
*	*	*lig	*	*	*	*	*
!LO:LB:g=original	!	!	!	!	!	!	!
2C/	om-	1G	om-	2c/	.	2e\	.
*	*	*	*	*	*	*custos:c	*
2GG/	-ni	.	.	2B/	om-	2d/	.
!	!	!	!	!	!	!LO:LB:g=original	!
=31-	=31-	=31-	=31-	=31-	=31-	=31-	=31-
2rAA	.	1A	.	2A/	-­-	2c\	.
2AA/	.	.	.	1.c	-ni	1f	.
*lig	*	*Xlig	*	*	*	*	*
1C	.	1G	.	.	.	.	.
.	.	.	.	.	.	2e\	.
=32-	=32-	=32-	=32-	=32-	=32-	=32-	=32-
1D	.	1F	-ni	2A/	.	1f	-ni
.	.	.	.	1d	lau-	.	.
*Xlig	*	*lig	*	*	*	*	*
2AA/	.	1A	lau-	.	.	2re	.
2AA/	lau-	.	.	2c/	.	2.e\	lau-
=33-	=33-	=33-	=33-	=33-	=33-	=33-	=33-
1E	.	1G	.	1B	.	.	.
.	.	.	.	.	.	4f\	.
.	.	.	.	.	.	2g\	.
*	*	*Xlig	*	*	*	*	*
*	*	*lig	*	*	*	*	*
2F\	.	1c	.	2A/	.	2a\	.
2C/	.	.	.	2e\	.	2g\	.
=34-	=34-	=34-	=34-	=34-	=34-	=34-	=34-
1D	.	1A	.	2.d\	.	2.f\	.
.	.	.	.	4c/	.	4e\	.
*lig	*	*Xlig	*	*	*	*	*
*	*	*lig	*	*	*	*	*
1GG	.	1B	.	4B/	.	1d	.
.	.	.	.	4A/	.	.	.
.	.	.	.	1G/	.	.	.
=35-	=35-	=35-	=35-	=35-	=35-	=35-	=35-
1C	.	1c	.	.	.	2e\	-de
.	.	.	.	2.e\	.	1g	.
*Xlig	*	*Xlig	*	*	*	*	*
*lig	*	*lig	*	*	*	*	*
1D	-de	1A	-de	.	.	.	.
.	.	.	.	4d/	.	.	.
.	.	.	.	1d/	-de	2f\	di-
=36-	=36-	=36-	=36-	=36-	=36-	=36-	=36-
1E	.	1G	.	.	.	1g	.
.	.	.	.	2c/	.	.	.
*Xlig	*	*Xlig	*	*	*	*	*
*	*	*lig	*	*	*	*lig	*
1D	di-	1A	di-	2d\	.	1f	.
*	*	*	*	*custos:g	*	*	*
.	.	.	.	2d\	.	.	.
!	!	!	!	!LO:LB:g=original	!	!	!
=37-	=37-	=37-	=37-	=37-	=37-	=37-	=37-
*lig	*	*	*	*	*	*	*
*	*	*custos:A	*	*	*	*custos:f	*
1C	.	1c	.	1g	di-	1e	.
!	!	!LO:LB:g=original	!	!	!	!LO:LB:g=original	!
*	*	*Xlig	*	*	*	*Xlig	*
1D	.	1A	.	2f\	.	1f	.
.	.	.	.	1d/	-gniſ-	.	.
*Xlig	*	*	*	*	*	*	*
=38-	=38-	=38-	=38-	=38-	=38-	=38-	=38-
2GG/	.	1G	-gniſ-	.	.	2d\	-gniſ-
2C/	-gniſ-	.	.	4c/	.	2e\	.
.	.	.	.	4B/	.	.	.
*	*	*lig	*	*	*	*	*
2.D/	.	1F	-si-	1A	-si-	2.f\	-si-
4C/	.	.	.	.	.	4e\	.
=39-	=39-	=39-	=39-	=39-	=39-	=39-	=39-
4BB/	.	1G	.	1B	-ma	4d\	.
4AA/	.	.	.	.	.	4c\	.
*custos:C	*	*	*	*	*	*	*
2BB/	-ſi-	.	.	.	.	2d\	-ma
!LO:LB:g=original	!	!	!	!	!	!	!
*	*	*Xlig	*	*	*	*	*
1C	-ma	1G	-ma	2rA	.	1e	.
.	.	.	.	2c/	qui-	.	.
=40-	=40-	=40-	=40-	=40-	=40-	=40-	=40-
*	*	*lig	*	*	*	*	*
1.GG	qui-	1G	qui-	0B	-a	2r	.
.	.	.	.	.	.	1d	qui-
.	.	1D	.	.	.	.	.
2GG/	-a	.	.	.	.	2d\	-a
*	*	*Xlig	*	*	*	*	*
=41-	=41-	=41-	=41-	=41-	=41-	=41-	=41-
2D/	ex	1F	-a	2.A/	ex	2.d\	ex
4C/	.	.	.	.	.	.	.
4BB/	.	.	.	4G/	.	4e\	.
*lig	*	*lig	*	*	*	*lig	*
1AA	.	1F	ex	4A/	.	1f	.
.	.	.	.	4B/	.	.	.
.	.	.	.	1c/	.	.	.
=42-	=42-	=42-	=42-	=42-	=42-	=42-	=42-
1GG	.	1G	.	.	.	1d	.
.	.	.	.	4B/	.	.	.
.	.	.	.	4A,/	.	.	.
*Xlig	*	*Xlig	*	*	*	*Xlig	*
1GG	te	1G	te	2.B/	te	1d	te
.	.	.	.	4c/	.	.	.
=43-	=43-	=43-	=43-	=43-	=43-	=43-	=43-
*	*	*lig	*	*	*	*	*
1D	or-	1A	or-	2.d\	or-	1f	or-
.	.	.	.	4c/	.	.	.
2E\	.	1G	.	2B/	.	2e\	.
2BB/	.	.	.	2d/	.	1d/	.
*	*	*Xlig	*	*	*	*	*
=44-	=44-	=44-	=44-	=44-	=44-	=44-	=44-
*lig	*	*lig	*	*lig	*	*	*
1AA	.	1A	.	1e	.	.	.
.	.	.	.	.	.	2c/	.
*	*	*	*	*custos:e	*	*	*
*	*	*	*	*	*	*lig	*
1D	.	1F	.	1f	.	1d	.
!	!	!	!	!LO:LB:g=original	!	!	!
*Xlig	*	*Xlig	*	*Xlig	*	*	*
=45-	=45-	=45-	=45-	=45-	=45-	=45-	=45-
*	*	*	*	*	*	*custos:f	*
2C/	.	1G	.	2e\	.	1g	.
2E\	.	.	.	2c/	.	.	.
!	!	!	!	!	!	!LO:LB:g=original	!
*	*	*	*	*	*	*Xlig	*
*	*	*custos:c	*	*	*	*	*
1D	.	1A	.	1d	.	1.f	.
!	!	!LO:LB:g=original	!	!	!	!	!
=46-	=46-	=46-	=46-	=46-	=46-	=46-	=46-
0C	.	0c	.	0G	.	.	.
.	.	.	.	.	.	4e\	.
.	.	.	.	.	.	4d\	.
.	.	.	.	.	.	1e	.
=47-	=47-	=47-	=47-	=47-	=47-	=47-	=47-
*	*	*lig	*	*	*	*	*
1D	.	1A	.	2.d\	.	1f	.
.	.	.	.	4c/	.	.	.
2E\	.	1G	.	2B/	.	2g\	.
2.C/	.	.	.	2.c/	.	2.e\	.
*	*	*Xlig	*	*	*	*	*
=48-	=48-	=48-	=48-	=48-	=48-	=48-	=48-
*	*	*lig	*	*	*	*	*
.	.	1E	.	.	.	.	.
*custos:E	*	*	*	*	*	*	*
4D/	.	.	.	4B/	.	4f\	.
!LO:PB:g=original	!	!	!	!	!	!	!
2E\	.	.	.	2G/	.	2g\	.
*	*	*	*	*	*	*lig	*
1D	.	1F	.	2A/	.	1f	-tus
.	.	.	.	2.d\	.	.	.
*	*	*Xlig	*	*	*	*	*
=49-	=49-	=49-	=49-	=49-	=49-	=49-	=49-
2GG/	.	1G	.	.	.	1e	.
.	.	.	.	4c/	.	.	.
2C/	-tus	.	.	1c	.	.	.
*	*	*lig	*	*	*	*Xlig	*
*	*	*	*	*	*	*lig	*
2r	.	1D	-tus	.	.	1d	.
2GG/	.	.	.	2B/	.	.	.
=50-	=50-	=50-	=50-	=50-	=50-	=50-	=50-
1C	eſt	1C	.	1c	-tus	1e	.
*	*	*Xlig	*	*	*	*Xlig	*
2C/	ſol	1C	eſt	1c	eſt	2e\	eſt
2AA/	.	.	.	.	.	1c/	.
=51-	=51-	=51-	=51-	=51-	=51-	=51-	=51-
1GG	.	1G	ſol	1d	.	.	.
.	.	.	.	.	.	2B/	sol
*	*	*lig	*	*	*	*lig	*
2C/	iu-	1G	iu-	2e\	.	1c	.
2E\	.	.	.	1g\	ſol	.	.
=52-	=52-	=52-	=52-	=52-	=52-	=52-	=52-
1D	.	1A	.	.	.	1d	.
.	.	.	.	2f\	iu-	.	.
*	*	*Xlig	*	*	*	*Xlig	*
*	*	*lig	*	*	*	*	*
*	*	*	*	*custos:e	*	*	*
2GG/	.	1G	.	2g\	-ſti-	2g\	.
!	!	!	!	!LO:LB:g=original	!	!	!
2C/	.	.	.	2e\	.	2g\	iu-
=53-	=53-	=53-	=53-	=53-	=53-	=53-	=53-
*	*	*	*	*	*	*lig	*
2F\	.	1F	.	2f\	.	1a	-ſti-
2D/	.	.	.	1d	-ti-	.	.
*lig	*	*Xlig	*	*	*	*	*
*	*	*lig	*	*	*	*	*
1E	.	1G	.	.	.	1g	.
.	.	.	.	2c/	-ae	.	.
*	*	*	*	*	*	*Xlig	*
=54-	=54-	=54-	=54-	=54-	=54-	=54-	=54-
*	*	*custos:c	*	*	*	*	*
1D	.	1A	.	1d	.	1f	.
!	!	!LO:LB:g=original	!	!	!	!	!
*Xlig	*	*Xlig	*	*	*	*	*
2C/	.	1c	.	2e\	.	2g\	.
1F\	-ſti-	.	.	1f\	.	1a\	.
=55-	=55-	=55-	=55-	=55-	=55-	=55-	=55-
*	*	*lig	*	*	*ij	*	*
.	.	1c	-ſti-	.	.	.	.
4C/	.	.	.	4e\	iu-	4g\	.
*custos:E	*	*	*	*	*	*	*
4D/	.	.	.	4d\	.	4f\	.
!LO:LB:g=original	!	!	!	!	!	!	!
1E	.	1B	.	2.e\	-ſti-	1g	.
.	.	.	.	4d/	.	.	.
*	*	*Xlig	*	*	*	*	*
=56-	=56-	=56-	=56-	=56-	=56-	=56-	=56-
*lig	*	*	*	*	*	*	*
1AA	-ti-	1c	.	4c/	.	1e	-ti-
.	.	.	.	4B/	.	.	.
.	.	.	.	1A	.	.	.
*	*	*lig	*	*	*	*	*
1D	.	1A	-ti-	.	.	2.f\	.
.	.	.	.	2d\	-ti-	.	.
.	.	.	.	.	.	4e\	.
*Xlig	*	*	*	*	*	*	*
=57-	=57-	=57-	=57-	=57-	=57-	=57-	=57-
1GG	-ae	1G	.	1B	-ae	1d	.
*	*	*Xlig	*	*	*Xij	*	*
*	*	*	*	*	*	*custos:g	*
2C/	.	1G	-ae.	2c/	chr(is-	2e\	.
!	!	!	!	!	!	!LO:PB:g=original	!
2E\	.	.	.	4B/	-t)uſ	1g\	.
.	.	.	.	4c/	.	.	.
=58-	=58-	=58-	=58-	=58-	=58-	=58-	=58-
*	*ij	*lig	*	*	*	*	*
1D	.	1A	.	2.d\	de-	.	.
.	.	.	.	.	.	2f\	-ae
.	.	.	.	4c/	-uſ	.	.
2GG/	.	1G	.	2B/	.	2g\	.
2C/	eſt	.	.	2c/	.	2e\	chr(i-
*	*	*Xlig	*	*	*	*	*
=59-	=59-	=59-	=59-	=59-	=59-	=59-	=59-
*	*	*lig	*	*	*	*	*
!LO:TX:t=P:problem=tu jest zarówno oryginalny znak powtórki tekstu, jak i późniejszy dopisek tekstu (jak w innych głosach). Wybieram pierwotny znak powtórzenia.	!	!	!	!	!	!	!
2.D/	ſol	1F	.	1A	.	1.d	-st)uſ
4C/	iu-	.	.	.	.	.	.
2BB/	-ſti-	1G	.	2B/	n(os-	.	.
1C/	.	.	.	1e\	-te)r	1c/	(De)-
*	*	*Xlig	*	*	*	*	*
=60-	=60-	=60-	=60-	=60-	=60-	=60-	=60-
.	.	00G;<	.	.	.	.	.
2BB/	-ti-	.	.	2d\	.	2d\	-uſ
1C	-ae	.	.	1c	.	1e	noſ-
*	*Xij	*	*	*	*	*	*
=61-	=61-	=61-	=61-	=61-	=61-	=61-	=61-
0GG;	.	.	.	0B;<	.	0d;;	-ter.
=-	=-	=-	=-	=-	=-	=-	=-
*-	*-	*-	*-	*-	*-	*-	*-
!!!system-decoration: [(s1,s2,s3,s4)]
!!!RDF**kern: > = above
!!!RDF**kern: < = below
!!!ENC: Mateusz Solarz
!!!END: 2022-03-15
!!!EED: Antoni Szymański
!!!EEV: 2022-03-20
